X: 2437
T: WEBER'S LAST WALTZ
R: waltz
B: Kerr's v.2 p.50 #437
Z: 2016 John Chambers <jc:trillian.mit.edu>
M: 3/4
L: 1/8
K: G
(dg) |\
(gf)(fA)(ce) | (ed)(dD)(GB) | (BA)(BA)(BA) | (GB)(Bd)(dg) |\
(gf)(fA)(ce) | (ed)(dD)(GB) | (BA)(BA)(BA) | G4 H:|
(Be) |\
(e^d)(dB)(df) | (fe)(eB)(eg) | (gf)(fe)(fg) | e4 (dg) |\
(gf)(fA)(ce) | (ed)(dD)(GB) | (BA)(BA)(BA) | G4 |][K:=f]
K: C
(G=F) |\
E3E (3(F/G/F/EF) | A2G2c2 | (ed)(ed)(ed) | (ce)(ce)(ce) |\
E3E (3(F/G/F/EF) | A2G2c2 | (ed)(ed)(ed) | "_D.C."c4 |]

%%sep 1 1 500
%%sep 1 1 500

